!!!OTL: Polly Wolly Doodle
!!!COM: unknown
!!!ODT: unknown
!!!YOR: The Folksong Fake Book
!!!YOY: 2000
!!!AST: Folk song
!!!YEC: Brian Luke, 2001
**kern	**harm
*k[b-]	*k[b-]
*M4/4	*M4/4
*F:	*F:
*>A	*>A
8.f	.
16g	.
=1	=1
4a	I
4a	.
4f	.
8f	.
8g	.
=2	=2
4a	.
4a	.
4f	.
8f	.
8g	.
=3	=3
8a	.
8a	.
8a	.
8a	.
8b-	.
8b-	.
8a	.
8a	.
=4	=4
2g	V7;
4r	.
*>B	*>B
8e	V7
8f	.
=5	=5
4g	.
4g	.
4e	.
4e	.
=6	=6
4g	.
4g	.
4e	.
8g	.
8g	.
=7	=7
8cc	.
8cc	.
8cc	.
8cc	.
8b-	.
8b-	.
8g	.
8g	.
=8	=8
2f	I;
4r	.
*>C	*>C
8f	.
8g	.
=9	=9
2.a	I
8f	.
8g	.
=10	=10
2.a	.
8f	.
8g	.
=11	=11
4a	.
4a	.
4b-	.
4a	.
=12	=12
2.g	V7;
*>B'	*>B'
8e	.
8f	.
=13	=13
8g	V7
8g	.
8g	.
8g	.
8e	.
8e	.
8e	.
8f	.
=14	=14
8g	.
8g	.
8g	.
8g	.
8e	.
8e	.
8g	.
8g	.
=15	=15
8cc	.
8cc	.
8cc	.
8cc	.
8b-	.
8b-	.
8g	.
8g	.
=16	=16
2.f	I;
*-	*-
